assets/img/braze_icons/beaker-01.svg

<svg fill="none" height="24" viewBox="0 0 24 24" width="24" xmlns="http://www.w3.org/2000/svg"><path clip-rule="evenodd" d="m7.5 2c0-.55228.44772-1 1-1h7c.5523 0 1 .44772 1 1s-.4477 1-1 1h-.5v3.54484c3.2126 1.21209 5.5 4.31526 5.5 7.95516 0 4.6944-3.8056 8.5-8.5 8.5-4.69442 0-8.5-3.8056-8.5-8.5 0-3.6399 2.28742-6.74308 5.5-7.95516v-3.54484h-.5c-.55228 0-1-.44772-1-1z" fill="#801ed7" fill-rule="evenodd"/></svg>

<svg width="24" height="24" viewBox="0 0 24 24" fill="none" xmlns="http://www.w3.org/2000/svg">
<path fill-rule="evenodd" clip-rule="evenodd" d="M7.5 2C7.5 1.44772 7.94772 1 8.5 1H15.5C16.0523 1 16.5 1.44772 16.5 2C16.5 2.55228 16.0523 3 15.5 3H15V6.54484C18.2126 7.75693 20.5 10.8601 20.5 14.5C20.5 19.1944 16.6944 23 12 23C7.30558 23 3.5 19.1944 3.5 14.5C3.5 10.8601 5.78742 7.75692 9 6.54484V3H8.5C7.94772 3 7.5 2.55228 7.5 2Z" fill="#801ED7"/>
</svg>
